imgs/send.svg

<svg width="16" height="16" viewBox="0 0 16 16" fill="none" xmlns="http://www.w3.org/2000/svg">
<path d="M10 14.6667C9.74867 14.6667 9.51667 14.5247 9.40333 14.298L7.42467 10.3407C7.316 10.1233 7.33467 9.86334 7.47267 9.66268L10.6667 5.33334L6.33667 8.52668C6.136 8.66534 5.876 8.68268 5.65867 8.57468L1.702 6.59668C1.46467 6.47734 1.32 6.22868 1.33467 5.96334C1.34867 5.69801 1.52 5.46601 1.76933 5.37468L14.436 0.708009C14.6793 0.619342 14.9533 0.677342 15.138 0.862009C15.322 1.04534 15.382 1.32001 15.292 1.56401L10.6253 14.2307C10.5333 14.48 10.302 14.6513 10.0367 14.6653C10.0247 14.666 10.012 14.6667 10 14.6667Z" fill="white"/>
</svg>

<svg xmlns="http://www.w3.org/2000/svg" width="16" height="16" fill="none" xmlns:v="https://vecta.io/nano"><path d="M10 14.667a.67.67 0 0 1-.597-.369l-1.979-3.957a.67.67 0 0 1 .048-.678l3.194-4.329-4.33 3.193a.67.67 0 0 1-.678.048L1.702 6.597a.67.67 0 0 1-.367-.633c.014-.265.185-.497.435-.589L14.436.708a.67.67 0 0 1 .702.154c.184.183.244.458.154.702l-4.667 12.667c-.092.249-.323.421-.589.435l-.037.001z" fill="#fff"/></svg>
